img/facebook.svg

<svg width="20" height="20" viewBox="0 0 20 20" fill="none" xmlns="http://www.w3.org/2000/svg">
<path fill-rule="evenodd" clip-rule="evenodd" d="M0 10.0559C0 15.0279 3.61111 19.162 8.33333 20L8.38896 19.9552C8.37042 19.9516 8.35188 19.948 8.33334 19.9442V12.8493H5.83334V10.056H8.33334V7.82134C8.33334 5.30737 9.94445 3.91073 12.2222 3.91073C12.9444 3.91073 13.7222 4.02246 14.4444 4.13419V6.70402H13.1667C11.9444 6.70402 11.6667 7.31854 11.6667 8.10067V10.056H14.3333L13.8889 12.8493H11.6667V19.9442C11.6481 19.948 11.6296 19.9516 11.611 19.9552L11.6667 20C16.3889 19.162 20 15.0279 20 10.0559C20 4.52513 15.5 0 10 0C4.5 0 0 4.52513 0 10.0559Z" fill="#FF7010"/>
</svg>

<svg width="20" height="20" fill="none" xmlns="http://www.w3.org/2000/svg"><path fill-rule="evenodd" clip-rule="evenodd" d="M0 10.056C0 15.028 3.611 19.162 8.333 20l.056-.045-.056-.01v-7.096h-2.5v-2.793h2.5V7.821c0-2.514 1.611-3.91 3.89-3.91.721 0 1.5.111 2.221.223v2.57h-1.277c-1.223 0-1.5.615-1.5 1.397v1.955h2.666l-.444 2.793h-2.222v7.095a5.476 5.476 0 0 1-.056.011l.056.045C16.389 19.162 20 15.028 20 10.056 20 4.526 15.5 0 10 0S0 4.525 0 10.056Z" fill="#FF7010"/></svg>
